X: 3175
T: DUNROBIN CASTLE
Q: "Strathspey."
R: Strathspey.
%R: strathspey
B: James Kerr "Merry Melodies" v.3 p.20 #175
Z: 2016 John Chambers <jc:trillian.mit.edu>
M: C
L: 1/16
K: Bb
A2 |\
vBF3F3D BF3Fd3 | dF3F3D (B,C)DE TF4 |\
BG3G3A BG3G3A | B3AGD3 (CD)EF G3A |\
BF3F3D BF3F3d | BF3F3D (B,C)DE TF4 |
f3de3c d3B (dc)BA | BF3 GFED (CD)EF G2 |]\
A2 |\
(Bc)de f3b d3bf3b | f3Bd3c (Bc)de f4 |\
(Bc)de f3b d3bf3b |
b3ag3d (cd)ef g4 |\
(Bc)de f3b d3bf3b | f3Bd3B (Bc)de f4 |\
d3f edcB (dc)BA (cB)AG | (BA)GF (GF)ED (CD)EF G2 |]

%%sep 1 1 500
%%sep 1 1 500

